Newaita/actions/scalable/tools-media-optical-format.svg

<?xml version="1.0" encoding="UTF-8"?>
<svg xmlns="http://www.w3.org/2000/svg" xmlns:xlink="http://www.w3.org/1999/xlink" width="512pt" height="512pt" viewBox="0 0 512 512" version="1.1">
<g id="surface1">
<path style=" stroke:none;fill-rule:nonzero;fill:rgb(25.882354%,25.882354%,25.882354%);fill-opacity:1;" d="M 254.023438 25.167969 C 125.023438 25.167969 21.167969 129.023438 21.167969 258.023438 C 21.167969 387.027344 125.023438 490.878906 254.023438 490.878906 C 383.027344 490.878906 486.878906 387.027344 486.878906 258.023438 C 486.878906 129.023438 383.027344 25.167969 254.023438 25.167969 Z M 254.023438 56.921875 C 365.433594 56.921875 455.125 146.613281 455.125 258.023438 C 455.125 369.433594 365.433594 459.125 254.023438 459.125 C 142.613281 459.125 52.921875 369.433594 52.921875 258.023438 C 52.921875 146.613281 142.613281 56.921875 254.023438 56.921875 Z M 254.023438 56.921875 "/>
<path style=" stroke:none;fill-rule:nonzero;fill:rgb(47.058824%,56.470591%,61.176473%);fill-opacity:1;" d="M 254.023438 173.351562 C 207.113281 173.351562 169.347656 211.113281 169.347656 258.023438 C 169.347656 304.933594 207.113281 342.699219 254.023438 342.699219 C 300.933594 342.699219 338.699219 304.933594 338.699219 258.023438 C 338.699219 211.113281 300.933594 173.351562 254.023438 173.351562 Z M 254.023438 215.6875 C 277.480469 215.6875 296.363281 234.570312 296.363281 258.023438 C 296.363281 281.480469 277.480469 300.363281 254.023438 300.363281 C 230.570312 300.363281 211.6875 281.480469 211.6875 258.023438 C 211.6875 234.570312 230.570312 215.6875 254.023438 215.6875 Z M 254.023438 215.6875 "/>
</g>
</svg>

<svg xmlns="http://www.w3.org/2000/svg" width="512pt" height="512pt" viewBox="0 0 512 512"><path d="M254.023 25.168c-129 0-232.855 103.855-232.855 232.855 0 129.004 103.855 232.856 232.855 232.856 129.004 0 232.856-103.852 232.856-232.856 0-129-103.852-232.855-232.856-232.855zm0 31.754c111.41 0 201.102 89.691 201.102 201.101s-89.691 201.102-201.102 201.102c-111.41 0-201.101-89.691-201.101-201.102 0-111.41 89.691-201.101 201.101-201.101zm0 0" fill="#424242"/><path d="M254.023 173.352c-46.91 0-84.675 37.761-84.675 84.671 0 46.91 37.765 84.676 84.675 84.676s84.676-37.765 84.676-84.676c0-46.91-37.765-84.671-84.676-84.671zm0 42.335c23.457 0 42.34 18.883 42.34 42.336 0 23.457-18.883 42.34-42.34 42.34-23.453 0-42.335-18.883-42.335-42.34 0-23.453 18.882-42.336 42.335-42.336zm0 0" fill="#78909c"/></svg>
